assets/images/avatar/Avatar 09.svg

<svg fill="none" height="128" viewBox="0 0 128 128" width="128" xmlns="http://www.w3.org/2000/svg" xmlns:xlink="http://www.w3.org/1999/xlink"><mask id="a" height="117" maskUnits="userSpaceOnUse" width="122" x="3" y="5"><path clip-rule="evenodd" d="m68.1763 5.85971c17.1396.98306 29.4014 14.82989 39.8497 28.47039 10.115 13.205 18.795 28.191 16.137 44.619-2.857 17.6538-13.366 34.7399-30.0236 41.1909-15.6247 6.051-31.0068-4.858-46.3376-11.621-16.4732-7.266-37.5835-10.7043-43.14053-27.8492-5.85742-18.0715 5.20801-36.7895 17.49773-51.2647 11.7387-13.8263 27.9241-24.58315 46.0173-23.54539z" fill="#eff6f7" fill-rule="evenodd"/></mask><g mask="url(#a)"><path clip-rule="evenodd" d="m68.1763 5.85971c17.1396.98306 29.4014 14.82989 39.8497 28.47039 10.115 13.205 18.795 28.191 16.137 44.619-2.857 17.6538-13.366 34.7399-30.0236 41.1909-15.6247 6.051-31.0068-4.858-46.3376-11.621-16.4732-7.266-37.5835-10.7043-43.14053-27.8492-5.85742-18.0715 5.20801-36.7895 17.49773-51.2647 11.7387-13.8263 27.9241-24.58315 46.0173-23.54539z" fill="#eff6f7" fill-rule="evenodd"/><path d="m109.214 95.5386c-10.2182-5.3516-5.29-2.7428-17.0662-8.2651-9.664-4.5349-11.6266-12.989-11.6266-21.4491 0-6.9517-7.1772-10.7947-14.589-11.7669-7.4118.9722-14.5889 4.8152-14.5889 11.7669 0 8.4601-1.9627 16.9142-11.6267 21.4491-11.7669 5.5192-8.2286 2.9135-18.4442 8.2651-12.27885 6.4274-14.93332 14.9064-17.24646 26.4904h122.42606c-2.301-11.584-4.959-20.072-17.238-26.4904z" fill="#e7baef"/><path d="m126.467 122.029h-122.42586c2.30705-11.581 4.9585-20.06 17.24346-26.4873 10.2156-5.3486 6.6743-2.7429 18.4411-8.2743 1.1278-.5207 2.2086-1.1376 3.2305-1.8438 2.4381-1.9566 4.3337-4.0472 5.2175-5.5345 4.3398 6.0617 11.0781 9.7859 13.9795 10.8831.5333.1889 1.219.7223 1.35 1.2556.3536 1.5238 1.4781 11.9532 1.8103 15.1832-.0081.139-.0243.277-.0487.415-.0244.344-.0457.533-.0457.533.0422-.109.0778-.22.1066-.332.0177.114.0495.225.0945.332 0 0-.0244-.18-.0609-.509 0-.131-.0214-.274-.0458-.439.3413-3.23 1.4659-13.6685 1.8286-15.1832.1188-.5333.8168-1.0667 1.3501-1.2556 3.0842-1.1612 10.3253-5.1078 14.6103-11.8461 2.6697 4.6933 4.8579 5.7752 4.8579 5.7752s1.1367 1.0819 4.2027 2.5661c11.6969 5.6686 6.8388 2.9257 17.0669 8.2743 12.266 6.4153 14.927 14.9003 17.237 26.4873z" fill="#f6e7f8"/><path d="m126.388 121.98h-122.42609c2.3101-11.581 4.96155-20.063 17.24649-26.4901 10.2126-5.3486 6.6743-2.7429 18.4381-8.2712 2.0358-.9251 3.9039-2.1815 5.5284-3.7181 3.6571 14.6468 16.9843 34.8434 20.0807 34.8434 3.3524 0 14.8968-17.676 20.3825-35.776 1.8115 1.9681 4.0018 3.55 6.4396 4.6507 11.7643 5.5253 6.8419 2.9226 17.0663 8.2712 12.273 6.4271 14.937 14.9031 17.244 26.4901z" fill="#8a94af"/><path d="m65.3593 107.638c0 .082-.0214.14-.0336.189-.0288.112-.0643.223-.1066.332 0 0 .0213-.189.0457-.534.0244-.137.0407-.275.0487-.414.0244.165.0336.308.0458.427z" fill="#f9f3fa"/><path d="m65.4202 108.159c-.045-.107-.0768-.218-.0945-.332-.0244-.058-.0366-.131-.0609-.202.0244-.137.0406-.275.0487-.414.0244.165.0336.305.0458.427.0365.341.0609.521.0609.521z" fill="#f9f3fa"/><path d="m80.9356 71.7245c-.2807-1.954-.4161-3.9261-.4053-5.9001-.0015-.9735-.1578-1.9405-.4632-2.8648-8.5334.4571-20.2545.3413-28.4587.7345-.1677.6988-.2537 1.4147-.256 2.1333 0 4.736-.6095 9.472-2.8556 13.5162 5.3089 2.9318 24.7253 5.9124 32.4388-7.6191z" fill="#db9fe6"/><path d="m82.6088 14.7737c1.3226-.7558.2377-3.7029-.8198-5.01336-3.8278 5.64116-6.912.18591-16.2011 0-9.9932-.20114-11.7456 3.47426-16.762 3.52606-9.8803.1006-11.4133 9.3684-8.838 26.5143.6643 4.416 1.7554 6.7779 5.1809 9.8743 2.9379 2.6514 7.0096 2.9135 10.7673 3.1177 3.2203.1768 6.4365.254 9.6487.2317 3.2163.0182 6.4335-.059 9.6518-.2317 3.7577-.2042 7.8293-.4663 10.7642-3.1177 3.4255-3.0964 3.9619-5.7508 4.6994-10.1547 1.1246-6.6255 1.3074-15.4514 0-19.8095-.8686-2.9135-5.2785-5.7021-8.0914-4.9371z" fill="#3f3d65"/><path d="m85.8545 57.1813c-1.7341 1.0484-2.1608-1.4263-2.3071-4.0351-.1493-2.6758.3597-7.2106 1.9414-9.1763 1.5817-1.9658 3.8918-3.0477 4.9493-.0945.8991 2.5143-.4602 10.8129-4.5836 13.3059z" fill="#e7baef"/><path d="m44.6232 57.1813c1.7341 1.0484 2.1608-1.4263 2.3071-4.0351.1493-2.6758-.3596-7.2106-1.9414-9.1763-1.5817-1.9658-3.8918-3.0477-4.9493-.0945-.899 2.5143.4694 10.8129 4.5836 13.3059z" fill="#e7baef"/><path d="m85.7631 37.7558c-.0731-5.1322-1.5238-9.0545-4.3306-10.7977-6.0953-3.8004-7.2869.7314-16.1189.5912h-.0701-.0732c-.0456.0032-.0914.0032-.1371 0h-.0701c-8.8381.1402-10.0297-4.3916-16.1219-.5912-2.7947 1.7432-4.2667 5.6655-4.3276 10.7977-.0366 2.6118-1.1337 5.376-.8716 9.4476.3565 5.5253 1.6518 10.6667 3.328 15.5886 2.6361 7.7653 10.8434 12.2392 12.8792 12.9188 1.6577.509 3.3773.7889 5.1109.832l.1767-.0274.1798.0274c1.7336-.0434 3.4531-.3233 5.1109-.832 2.0358-.6796 10.243-5.1535 12.8792-12.9188 1.6762-4.9341 2.9684-10.0572 3.325-15.5886.2652-4.0655-.832-6.8358-.8686-9.4476z" fill="#e7baef"/><g fill="#28213d"><path d="m75.7395 55.1119c-3.5932 0-6.5159-2.7733-6.5159-6.1775s2.9227-6.1775 6.5159-6.1775c3.5931 0 6.5219 2.7703 6.5219 6.1714 0 3.4012-2.9288 6.1836-6.5219 6.1836zm0-11.1725c-2.941 0-5.3303 2.24-5.3303 4.995 0 2.7551 2.3893 4.992 5.3303 4.992 2.9409 0 5.3303-2.24 5.3303-4.992s-2.3894-4.995-5.3303-4.995z"/><path d="m45.2236 42.5588c-.448-.4693-.8259-.8594-1.1642-1.1916-.0792.4663-.1554.9508-.2224 1.4537l.5303.5547c1.0087 1.0514 2.3862 2.4899 4.2666 4.2087l.7954-.8777c-1.8499-1.6914-3.2122-3.1116-4.2057-4.1478z"/><path d="m86.2233 41.4586c-.3048.3048-.6644.6766-1.0667 1.1002-.9966 1.0362-2.3589 2.4564-4.2149 4.1478l.7924.8777c1.8926-1.7188 3.2701-3.1573 4.2667-4.2087l.4358-.4541c-.0488-.5059-.128-1.0027-.2133-1.4629z"/><path d="m70.147 48.4194c-1.283-.5273-2.8739-.7284-4.8762-.6096l-.067-1.1794c2.1699-.1219 3.9284.1067 5.379.701z"/><path d="m54.7535 55.1119c-3.5901 0-6.5127-2.7733-6.5127-6.1775s2.9226-6.1775 6.5127-6.1775 6.5159 2.7703 6.5159 6.1775c0 3.4073-2.9227 6.1775-6.5159 6.1775zm0-11.1725c-2.9379 0-5.3302 2.24-5.3302 4.995 0 2.7551 2.3923 4.992 5.3302 4.992 2.938 0 5.3334-2.24 5.3334-4.992s-2.3924-4.995-5.3334-4.995z"/><path d="m60.3459 48.4194-.448-1.0941c1.4507-.5943 3.2092-.8259 5.3791-.7009l-.0671 1.1794c-1.9901-.1128-3.5779.0884-4.864.6156z"/></g><path d="m88.2957 83.6712s-1.6213 11.0903-9.5787 21.2878c-1.1946 1.524-5.1139-3.59-7.5063-7.092-1.0057-1.475-1.8621-3.3341-2.5417-3.3341-.5882 0-3.0933 13.0221-3.4499 13.6351 0 0 1.4903-14.3239 1.917-16.128.1158-.5364.8198-1.0606 1.3501-1.2587 3.142-1.1825 10.6148-5.2693 14.8662-12.2484.0374-.0615.0873-.1145.1465-.1554s.1263-.0689.1971-.0822c.0707-.0132.1435-.0113.2134.0054.07.0168.1357.0481.1928.092 2.4259 1.8926 4.1935 5.2785 4.1935 5.2785z" fill="#f9f3fa"/><path d="m42.1974 83.6712s1.6244 11.0903 9.5817 21.2878c1.1916 1.524 5.1109-3.59 7.5033-7.092 1.0087-1.475 1.8651-3.3341 2.5447-3.3341.5882 0 3.0903 13.0221 3.4499 13.6351 0 0-1.4903-14.3238-1.917-16.128-.1158-.5364-.8198-1.0606-1.3531-1.2587-3.1421-1.1825-10.6149-5.2693-14.8632-12.2484-.0377-.0616-.0879-.1146-.1474-.1555-.0594-.041-.1268-.069-.1978-.0822s-.144-.0114-.2142.0054-.1361.0482-.1934.0921c-2.4259 1.8926-4.1935 5.2785-4.1935 5.2785z" fill="#f9f3fa"/><path d="m54.6469 35.1745c1.7219-.4907 3.5322-.5608 5.3059-.6096 1.7798 0 3.5505.064 5.315.1738 1.7646.1097 3.4926-.0427 5.2663-.0579 1.7737-.0153 3.5931-.0671 5.3059.4601-1.7615-.2255-3.5139.0153-5.2724.1524-1.7721.2202-3.5568.322-5.3424.3048-1.7707-.0518-3.5322-.189-5.2907-.2865-1.7584-.1479-3.5239-.1937-5.2876-.1371z" fill="#db9fe6"/><path d="m57.3531 32.715c1.2414-.5653 2.5697-.9157 3.9284-1.0362 1.3486-.1359 2.7053-.1746 4.0594-.1158 1.3471.0579 2.6819.1585 4.0107.2682 1.3284.1332 2.664.1811 3.9985.1432-1.3041.3825-2.6578.5684-4.0167.5516-1.3532.0275-2.6941-.0365-4.0259-.0762-2.6667-.0914-5.2938-.2194-7.9544.2652z" fill="#db9fe6"/></g></svg>

<svg width="128" height="128" viewBox="0 0 128 128" fill="none" xmlns="http://www.w3.org/2000/svg">
<mask id="mask0_457_1648" style="mask-type:alpha" maskUnits="userSpaceOnUse" x="3" y="5" width="122" height="117">
<path fill-rule="evenodd" clip-rule="evenodd" d="M68.1763 5.85971C85.3159 6.84277 97.5777 20.6896 108.026 34.3301C118.141 47.5351 126.821 62.5211 124.163 78.9491C121.306 96.6029 110.797 113.689 94.1394 120.14C78.5147 126.191 63.1326 115.282 47.8018 108.519C31.3286 101.253 10.2183 97.8147 4.66127 80.6698C-1.19615 62.5983 9.86928 43.8803 22.159 29.4051C33.8977 15.5788 50.0831 4.82195 68.1763 5.85971Z" fill="#EFF6F7"/>
</mask>
<g mask="url(#mask0_457_1648)">
<path fill-rule="evenodd" clip-rule="evenodd" d="M68.1763 5.85971C85.3159 6.84277 97.5777 20.6896 108.026 34.3301C118.141 47.5351 126.821 62.5211 124.163 78.9491C121.306 96.6029 110.797 113.689 94.1394 120.14C78.5147 126.191 63.1326 115.282 47.8018 108.519C31.3286 101.253 10.2183 97.8147 4.66127 80.6698C-1.19615 62.5983 9.86928 43.8803 22.159 29.4051C33.8977 15.5788 50.0831 4.82195 68.1763 5.85971Z" fill="#EFF6F7"/>
<path d="M109.214 95.5386C98.9958 90.187 103.924 92.7958 92.1478 87.2735C82.4838 82.7386 80.5212 74.2845 80.5212 65.8244C80.5212 58.8727 73.344 55.0297 65.9322 54.0575C58.5204 55.0297 51.3433 58.8727 51.3433 65.8244C51.3433 74.2845 49.3806 82.7386 39.7166 87.2735C27.9497 92.7927 31.488 90.187 21.2724 95.5386C8.99355 101.966 6.33908 110.445 4.02594 122.029H126.452C124.151 110.445 121.493 101.957 109.214 95.5386Z" fill="#E7BAEF"/>
<path d="M126.467 122.029H4.04114C6.34819 110.448 8.99964 101.969 21.2846 95.5417C31.5002 90.1931 27.9589 92.7988 39.7257 87.2674C40.8535 86.7467 41.9343 86.1298 42.9562 85.4236C45.3943 83.467 47.2899 81.3764 48.1737 79.8891C52.5135 85.9508 59.2518 89.675 62.1532 90.7722C62.6865 90.9611 63.3722 91.4945 63.5032 92.0278C63.8568 93.5516 64.9813 103.981 65.3135 107.211C65.3054 107.35 65.2892 107.488 65.2648 107.626C65.2404 107.97 65.2191 108.159 65.2191 108.159C65.2613 108.05 65.2969 107.939 65.3257 107.827C65.3434 107.941 65.3752 108.052 65.4202 108.159C65.4202 108.159 65.3958 107.979 65.3593 107.65C65.3593 107.519 65.3379 107.376 65.3135 107.211C65.6548 103.981 66.7794 93.5425 67.1421 92.0278C67.2609 91.4945 67.9589 90.9611 68.4922 90.7722C71.5764 89.611 78.8175 85.6644 83.1025 78.9261C85.7722 83.6194 87.9604 84.7013 87.9604 84.7013C87.9604 84.7013 89.0971 85.7832 92.1631 87.2674C103.86 92.936 99.0019 90.1931 109.23 95.5417C121.496 101.957 124.157 110.442 126.467 122.029Z" fill="#F6E7F8"/>
<path d="M126.388 121.98H3.96191C6.27201 110.399 8.92346 101.917 21.2084 95.4899C31.421 90.1413 27.8827 92.747 39.6465 87.2187C41.6823 86.2936 43.5504 85.0372 45.1749 83.5006C48.832 98.1474 62.1592 118.344 65.2556 118.344C68.608 118.344 80.1524 100.668 85.6381 82.568C87.4496 84.5361 89.6399 86.118 92.0777 87.2187C103.842 92.744 98.9196 90.1413 109.144 95.4899C121.417 101.917 124.081 110.393 126.388 121.98Z" fill="#8A94AF"/>
<path d="M65.3593 107.638C65.3593 107.72 65.3379 107.778 65.3257 107.827C65.2969 107.939 65.2614 108.05 65.2191 108.159C65.2191 108.159 65.2404 107.97 65.2648 107.625C65.2892 107.488 65.3055 107.35 65.3135 107.211C65.3379 107.376 65.3471 107.519 65.3593 107.638Z" fill="#F9F3FA"/>
<path d="M65.4202 108.159C65.3752 108.052 65.3434 107.941 65.3257 107.827C65.3013 107.769 65.2891 107.696 65.2648 107.625C65.2892 107.488 65.3054 107.35 65.3135 107.211C65.3379 107.376 65.3471 107.516 65.3593 107.638C65.3958 107.979 65.4202 108.159 65.4202 108.159Z" fill="#F9F3FA"/>
<path d="M80.9356 71.7245C80.6549 69.7705 80.5195 67.7984 80.5303 65.8244C80.5288 64.8509 80.3725 63.8839 80.0671 62.9596C71.5337 63.4167 59.8126 63.3009 51.6084 63.6941C51.4407 64.3929 51.3547 65.1088 51.3524 65.8274C51.3524 70.5634 50.7429 75.2994 48.4968 79.3436C53.8057 82.2754 73.2221 85.256 80.9356 71.7245Z" fill="#DB9FE6"/>
<path d="M82.6088 14.7737C83.9314 14.0179 82.8465 11.0708 81.789 9.76034C77.9612 15.4015 74.877 9.94625 65.5879 9.76034C55.5947 9.5592 53.8423 13.2346 48.8259 13.2864C38.9456 13.387 37.4126 22.6548 39.9879 39.8007C40.6522 44.2167 41.7433 46.5786 45.1688 49.675C48.1067 52.3264 52.1784 52.5885 55.9361 52.7927C59.1564 52.9695 62.3726 53.0467 65.5848 53.0244C68.8011 53.0426 72.0183 52.9654 75.2366 52.7927C78.9943 52.5885 83.0659 52.3264 86.0008 49.675C89.4263 46.5786 89.9627 43.9242 90.7002 39.5203C91.8248 32.8948 92.0076 24.0689 90.7002 19.7108C89.8316 16.7973 85.4217 14.0087 82.6088 14.7737Z" fill="#3F3D65"/>
<path d="M85.8545 57.1813C84.1204 58.2297 83.6937 55.755 83.5474 53.1462C83.3981 50.4704 83.9071 45.9356 85.4888 43.9699C87.0705 42.0041 89.3806 40.9222 90.4381 43.8754C91.3372 46.3897 89.9779 54.6883 85.8545 57.1813Z" fill="#E7BAEF"/>
<path d="M44.6232 57.1813C46.3573 58.2297 46.784 55.755 46.9303 53.1462C47.0796 50.4704 46.5707 45.9356 44.9889 43.9699C43.4072 42.0041 41.0971 40.9222 40.0396 43.8754C39.1406 46.3897 40.509 54.6883 44.6232 57.1813Z" fill="#E7BAEF"/>
<path d="M85.7631 37.7558C85.69 32.6236 84.2393 28.7013 81.4325 26.9581C75.3372 23.1577 74.1456 27.6895 65.3136 27.5493H65.2435H65.1703C65.1247 27.5525 65.0789 27.5525 65.0332 27.5493H64.9631C56.125 27.6895 54.9334 23.1577 48.8412 26.9581C46.0465 28.7013 44.5745 32.6236 44.5136 37.7558C44.477 40.3676 43.3799 43.1318 43.642 47.2034C43.9985 52.7287 45.2938 57.8701 46.97 62.792C49.6061 70.5573 57.8134 75.0312 59.8492 75.7108C61.5069 76.2198 63.2265 76.4997 64.9601 76.5428L65.1368 76.5154L65.3166 76.5428C67.0502 76.4994 68.7697 76.2195 70.4275 75.7108C72.4633 75.0312 80.6705 70.5573 83.3067 62.792C84.9829 57.8579 86.2751 52.7348 86.6317 47.2034C86.8969 43.1379 85.7997 40.3676 85.7631 37.7558Z" fill="#E7BAEF"/>
<path d="M75.7395 55.1119C72.1463 55.1119 69.2236 52.3386 69.2236 48.9344C69.2236 45.5302 72.1463 42.7569 75.7395 42.7569C79.3326 42.7569 82.2614 45.5272 82.2614 48.9283C82.2614 52.3295 79.3326 55.1119 75.7395 55.1119ZM75.7395 43.9394C72.7985 43.9394 70.4092 46.1794 70.4092 48.9344C70.4092 51.6895 72.7985 53.9264 75.7395 53.9264C78.6804 53.9264 81.0698 51.6864 81.0698 48.9344C81.0698 46.1824 78.6804 43.9394 75.7395 43.9394Z" fill="#28213D"/>
<path d="M45.2236 42.5588C44.7756 42.0895 44.3977 41.6994 44.0594 41.3672C43.9802 41.8335 43.904 42.318 43.837 42.8209L44.3673 43.3756C45.376 44.427 46.7535 45.8655 48.6339 47.5843L49.4293 46.7066C47.5794 45.0152 46.2171 43.595 45.2236 42.5588Z" fill="#28213D"/>
<path d="M86.2233 41.4586C85.9185 41.7634 85.5589 42.1352 85.1566 42.5588C84.16 43.595 82.7977 45.0152 80.9417 46.7066L81.7341 47.5843C83.6267 45.8655 85.0042 44.427 86.0008 43.3756L86.4366 42.9215C86.3878 42.4156 86.3086 41.9188 86.2233 41.4586Z" fill="#28213D"/>
<path d="M70.147 48.4194C68.864 47.8921 67.2731 47.691 65.2708 47.8098L65.2038 46.6304C67.3737 46.5085 69.1322 46.7371 70.5828 47.3314L70.147 48.4194Z" fill="#28213D"/>
<path d="M54.7535 55.1119C51.1634 55.1119 48.2408 52.3386 48.2408 48.9344C48.2408 45.5302 51.1634 42.7569 54.7535 42.7569C58.3436 42.7569 61.2694 45.5272 61.2694 48.9344C61.2694 52.3417 58.3467 55.1119 54.7535 55.1119ZM54.7535 43.9394C51.8156 43.9394 49.4233 46.1794 49.4233 48.9344C49.4233 51.6895 51.8156 53.9264 54.7535 53.9264C57.6915 53.9264 60.0869 51.6864 60.0869 48.9344C60.0869 46.1824 57.6945 43.9394 54.7535 43.9394Z" fill="#28213D"/>
<path d="M60.3459 48.4194L59.8979 47.3253C61.3486 46.731 63.1071 46.4994 65.277 46.6244L65.2099 47.8038C63.2198 47.691 61.632 47.8922 60.3459 48.4194Z" fill="#28213D"/>
<path d="M88.2957 83.6712C88.2957 83.6712 86.6744 94.7615 78.717 104.959C77.5224 106.483 73.6031 101.369 71.2107 97.867C70.205 96.392 69.3486 94.5329 68.669 94.5329C68.0808 94.5329 65.5757 107.555 65.2191 108.168C65.2191 108.168 66.7094 93.8441 67.1361 92.04C67.2519 91.5036 67.9559 90.9794 68.4862 90.7813C71.6282 89.5988 79.101 85.512 83.3524 78.5329C83.3898 78.4714 83.4397 78.4184 83.4989 78.3775C83.5581 78.3366 83.6252 78.3086 83.696 78.2953C83.7667 78.2821 83.8395 78.284 83.9094 78.3007C83.9794 78.3175 84.0451 78.3488 84.1022 78.3927C86.5281 80.2853 88.2957 83.6712 88.2957 83.6712Z" fill="#F9F3FA"/>
<path d="M42.1974 83.6712C42.1974 83.6712 43.8218 94.7615 51.7791 104.959C52.9707 106.483 56.89 101.369 59.2824 97.867C60.2911 96.392 61.1475 94.5329 61.8271 94.5329C62.4153 94.5329 64.9174 107.555 65.277 108.168C65.277 108.168 63.7867 93.8442 63.36 92.04C63.2442 91.5036 62.5402 90.9794 62.0069 90.7813C58.8648 89.5988 51.392 85.512 47.1437 78.5329C47.106 78.4713 47.0558 78.4183 46.9963 78.3774C46.9369 78.3364 46.8695 78.3084 46.7985 78.2952C46.7275 78.282 46.6545 78.2838 46.5843 78.3006C46.5141 78.3174 46.4482 78.3488 46.3909 78.3927C43.965 80.2853 42.1974 83.6712 42.1974 83.6712Z" fill="#F9F3FA"/>
<path d="M54.6469 35.1745C56.3688 34.6838 58.1791 34.6137 59.9528 34.5649C61.7326 34.5649 63.5033 34.6289 65.2678 34.7387C67.0324 34.8484 68.7604 34.696 70.5341 34.6808C72.3078 34.6655 74.1272 34.6137 75.84 35.1409C74.0785 34.9154 72.3261 35.1562 70.5676 35.2933C68.7955 35.5135 67.0108 35.6153 65.2252 35.5981C63.4545 35.5463 61.693 35.4091 59.9345 35.3116C58.1761 35.1637 56.4106 35.1179 54.6469 35.1745V35.1745Z" fill="#DB9FE6"/>
<path d="M57.3531 32.715C58.5945 32.1497 59.9228 31.7993 61.2815 31.6788C62.6301 31.5429 63.9868 31.5042 65.3409 31.563C66.688 31.6209 68.0228 31.7215 69.3516 31.8312C70.68 31.9644 72.0156 32.0123 73.3501 31.9744C72.046 32.3569 70.6923 32.5428 69.3334 32.526C67.9802 32.5535 66.6393 32.4895 65.3075 32.4498C62.6408 32.3584 60.0137 32.2304 57.3531 32.715Z" fill="#DB9FE6"/>
</g>
</svg>
